X: 9
T:Patsy Geary's Slide
M:12/8
L:1/8
R:Slide
K:D
AG[|F2A AFA B=cB A2G|F2A d2e f3 fef|!
g2g fgf e=fe d2B|ABA AFD E3 EFG||!
F2A AFA B=cB A2G|F2A d2e f3 fef|!
ggg fgf e=fe d2B|AFA f2e d3 d2e|]!
f2e f2e f2e fga|~A3 BAF ~A3 ABd|!
efe efe efe dfa|baf afe d3 d2e||!
f2e f2e f2e fga|~A3 BAF ~A3 ABd|!
efe efe efe dfa|baf afe d3 dAG|]!
